src/assets/bold/lm-arrows-counter-clockwise-bold.svg

<svg width="24" height="24" viewBox="0 0 24 24" fill="none" xmlns="http://www.w3.org/2000/svg" fill="currentColor">
<path d="M7.55012 4.45184C9.23098 3.48078 11.1845 3.08931 13.1097 3.33773C15.035 3.58615 16.8251 4.46068 18.2045 5.8266C19.5838 7.19252 20.4757 8.97405 20.743 10.8968C20.8 11.307 20.5136 11.6859 20.1033 11.7429C19.6931 11.7999 19.3142 11.5135 19.2572 11.1032C19.0353 9.50641 18.2945 8.02683 17.149 6.89242C16.0035 5.75801 14.5167 5.03171 12.9178 4.8254C11.3189 4.61909 9.69644 4.9442 8.30047 5.75068C7.24361 6.36124 6.36093 7.22204 5.72541 8.25001H8.00009C8.41431 8.25001 8.75009 8.5858 8.75009 9.00001C8.75009 9.41423 8.41431 9.75001 8.00009 9.75001H4.51686C4.5055 9.75027 4.49412 9.75027 4.48272 9.75001H4.00009C3.58588 9.75001 3.25009 9.41423 3.25009 9.00001V5.00001C3.25009 4.5858 3.58588 4.25001 4.00009 4.25001C4.41431 4.25001 4.75009 4.5858 4.75009 5.00001V7.00697C5.48358 5.96922 6.43655 5.09516 7.55012 4.45184ZM3.89686 12.2572C4.30713 12.2001 4.68594 12.4865 4.74295 12.8968C4.96487 14.4936 5.70565 15.9732 6.85119 17.1076C7.99673 18.242 9.48347 18.9683 11.0824 19.1746C12.6813 19.3809 14.3037 19.0558 15.6997 18.2493C16.7566 17.6388 17.6393 16.778 18.2748 15.75H16.0001C15.5859 15.75 15.2501 15.4142 15.2501 15C15.2501 14.5858 15.5859 14.25 16.0001 14.25H19.4833C19.4947 14.2498 19.5061 14.2498 19.5175 14.25H20.0001C20.4143 14.25 20.7501 14.5858 20.7501 15V19C20.7501 19.4142 20.4143 19.75 20.0001 19.75C19.5859 19.75 19.2501 19.4142 19.2501 19V16.9931C18.5166 18.0308 17.5636 18.9049 16.4501 19.5482C14.7692 20.5192 12.8157 20.9107 10.8904 20.6623C8.9652 20.4139 7.17504 19.5393 5.79572 18.1734C4.4164 16.8075 3.52443 15.026 3.25723 13.1032C3.20022 12.693 3.48658 12.3142 3.89686 12.2572Z" fill="black"/>
</svg>

<svg xmlns="http://www.w3.org/2000/svg" width="24" height="24" fill="currentColor" viewBox="0 0 24 24">
  <path d="M7.55 4.452a8.85 8.85 0 0 1 13.193 6.445.75.75 0 0 1-1.486.206A7.35 7.35 0 0 0 5.725 8.25H8a.75.75 0 1 1 0 1.5H4A.75.75 0 0 1 3.25 9V5a.75.75 0 0 1 1.5 0v2.007a8.85 8.85 0 0 1 2.8-2.555Zm-3.653 7.805a.75.75 0 0 1 .846.64 7.35 7.35 0 0 0 13.532 2.853H16a.75.75 0 0 1 0-1.5h4a.75.75 0 0 1 .75.75v4a.75.75 0 0 1-1.5 0v-2.007a8.85 8.85 0 0 1-15.993-3.89.75.75 0 0 1 .64-.846Z"/>
</svg>
